X: 14136
T: Frisky Bob
R: reel
M: 4/4
K: Bminor
c|"Bm" d/c/B fB FBBc|dBeB "A" cAAc|"Bm" d/c/B fB FBde|"F#" fgfe "Bm" dBBc|
"Bm" d/c/B fB FBBc|dBeB "A" cAAc|"Bm" Bdce dfeg|"F#" fbfe "Bm" dBBf||
"Bm" bffe dBBc|"D" dfed "A" cAAf|"Bm" bffe dBBc|"D" df "A" ec "Bm" dBB z|
"Bm" bffe dBBc|"D" dfed "A" cAAc|"Bm" Bdce dfeg|"F#" fbfe "Bm" dB B2||

